images/11220655.svg

<?xml version="1.0" encoding="UTF-8"?>
<svg xmlns="http://www.w3.org/2000/svg" xmlns:xlink="http://www.w3.org/1999/xlink" width="300pt" height="300pt" viewBox="0 0 300 300" version="1.1">
<defs>
<g>
<symbol overflow="visible" id="glyph0-0">
<path style="stroke:none;" d="M 0.59375 2.125 L 0.59375 -8.46875 L 6.59375 -8.46875 L 6.59375 2.125 Z M 1.265625 1.453125 L 5.9375 1.453125 L 5.9375 -7.78125 L 1.265625 -7.78125 Z M 1.265625 1.453125 "/>
</symbol>
<symbol overflow="visible" id="glyph0-1">
<path style="stroke:none;" d="M 1.171875 -8.75 L 2.765625 -8.75 L 6.65625 -1.4375 L 6.65625 -8.75 L 7.796875 -8.75 L 7.796875 0 L 6.203125 0 L 2.328125 -7.3125 L 2.328125 0 L 1.171875 0 Z M 1.171875 -8.75 "/>
</symbol>
<symbol overflow="visible" id="glyph0-2">
<path style="stroke:none;" d="M 4.734375 -7.953125 C 3.867188 -7.953125 3.179688 -7.628906 2.671875 -6.984375 C 2.171875 -6.347656 1.921875 -5.472656 1.921875 -4.359375 C 1.921875 -3.265625 2.171875 -2.394531 2.671875 -1.75 C 3.179688 -1.113281 3.867188 -0.796875 4.734375 -0.796875 C 5.585938 -0.796875 6.265625 -1.113281 6.765625 -1.75 C 7.273438 -2.394531 7.53125 -3.265625 7.53125 -4.359375 C 7.53125 -5.472656 7.273438 -6.347656 6.765625 -6.984375 C 6.265625 -7.628906 5.585938 -7.953125 4.734375 -7.953125 Z M 4.734375 -8.90625 C 5.953125 -8.90625 6.925781 -8.492188 7.65625 -7.671875 C 8.394531 -6.847656 8.765625 -5.742188 8.765625 -4.359375 C 8.765625 -2.984375 8.394531 -1.882812 7.65625 -1.0625 C 6.925781 -0.238281 5.953125 0.171875 4.734375 0.171875 C 3.503906 0.171875 2.519531 -0.238281 1.78125 -1.0625 C 1.039062 -1.882812 0.671875 -2.984375 0.671875 -4.359375 C 0.671875 -5.742188 1.039062 -6.847656 1.78125 -7.671875 C 2.519531 -8.492188 3.503906 -8.90625 4.734375 -8.90625 Z M 4.734375 -8.90625 "/>
</symbol>
<symbol overflow="visible" id="glyph0-3">
<path style="stroke:none;" d="M 1.171875 -8.75 L 2.359375 -8.75 L 2.359375 -5.15625 L 6.65625 -5.15625 L 6.65625 -8.75 L 7.84375 -8.75 L 7.84375 0 L 6.65625 0 L 6.65625 -4.171875 L 2.359375 -4.171875 L 2.359375 0 L 1.171875 0 Z M 1.171875 -8.75 "/>
</symbol>
</g>
</defs>
<g id="surface29693">
<rect x="0" y="0" width="300" height="300" style="fill:rgb(100%,100%,100%);fill-opacity:1;stroke:none;"/>
<path style="fill:none;stroke-width:1.2;stroke-linecap:butt;stroke-linejoin:miter;stroke:rgb(0%,0%,0%);stroke-opacity:1;stroke-miterlimit:10;" d="M 35.25 122.898438 L 54.359375 100.101562 "/>
<path style="fill:none;stroke-width:1.2;stroke-linecap:butt;stroke-linejoin:miter;stroke:rgb(0%,0%,0%);stroke-opacity:1;stroke-miterlimit:10;" d="M 45.4375 150.847656 L 35.25 122.898438 "/>
<path style="fill:none;stroke-width:1.2;stroke-linecap:butt;stroke-linejoin:miter;stroke:rgb(0%,0%,0%);stroke-opacity:1;stroke-miterlimit:10;" d="M 54.359375 100.101562 L 83.65625 105.25 "/>
<path style="fill:none;stroke-width:1.2;stroke-linecap:butt;stroke-linejoin:miter;stroke:rgb(0%,0%,0%);stroke-opacity:1;stroke-miterlimit:10;" d="M 83.65625 105.25 L 88.753906 119.226562 "/>
<path style="fill:none;stroke-width:1.2;stroke-linecap:butt;stroke-linejoin:miter;stroke:rgb(0%,0%,100%);stroke-opacity:1;stroke-miterlimit:10;" d="M 88.753906 119.226562 L 93.847656 133.199219 "/>
<path style="fill:none;stroke-width:1.2;stroke-linecap:butt;stroke-linejoin:miter;stroke:rgb(0%,0%,100%);stroke-opacity:1;stroke-miterlimit:10;" d="M 93.847656 133.199219 L 84.292969 144.597656 "/>
<path style="fill:none;stroke-width:1.2;stroke-linecap:butt;stroke-linejoin:miter;stroke:rgb(0%,0%,0%);stroke-opacity:1;stroke-miterlimit:10;" d="M 84.292969 144.597656 L 74.738281 155.996094 "/>
<path style="fill:none;stroke-width:1.2;stroke-linecap:butt;stroke-linejoin:miter;stroke:rgb(0%,0%,100%);stroke-opacity:1;stroke-miterlimit:10;" d="M 93.847656 133.199219 L 108.496094 135.773438 "/>
<path style="fill:none;stroke-width:1.2;stroke-linecap:butt;stroke-linejoin:miter;stroke:rgb(0%,0%,0%);stroke-opacity:1;stroke-miterlimit:10;" d="M 108.496094 135.773438 L 123.144531 138.347656 "/>
<path style=" stroke:none;fill-rule:nonzero;fill:rgb(100%,100%,100%);fill-opacity:1;" d="M 89.847656 126.199219 L 98.847656 126.199219 L 98.847656 140.199219 L 89.847656 140.199219 Z M 89.847656 126.199219 "/>
<g style="fill:rgb(0%,0%,100%);fill-opacity:1;">
  <use xlink:href="#glyph0-1" x="89.847656" y="137.337891"/>
</g>
<path style="fill:none;stroke-width:1.2;stroke-linecap:butt;stroke-linejoin:miter;stroke:rgb(0%,0%,0%);stroke-opacity:1;stroke-miterlimit:10;" d="M 74.738281 155.996094 L 45.4375 150.847656 "/>
<path style="fill:none;stroke-width:1.2;stroke-linecap:butt;stroke-linejoin:miter;stroke:rgb(0%,0%,0%);stroke-opacity:1;stroke-miterlimit:10;" d="M 123.144531 138.347656 L 142.253906 115.550781 "/>
<path style=" stroke:none;fill-rule:nonzero;fill:rgb(0%,0%,0%);fill-opacity:1;" d="M 171.554688 120.703125 L 143.164062 110.382812 L 141.347656 120.722656 Z M 171.554688 120.703125 "/>
<path style="fill:none;stroke-width:1.2;stroke-linecap:butt;stroke-linejoin:miter;stroke:rgb(0%,0%,0%);stroke-opacity:1;stroke-miterlimit:10;" d="M 171.554688 120.703125 L 200.851562 125.851562 "/>
<path style="fill:none;stroke-width:1.2;stroke-linecap:butt;stroke-linejoin:miter;stroke:rgb(0%,0%,0%);stroke-opacity:1;stroke-miterlimit:10;" d="M 171.554688 120.703125 L 166.402344 150 "/>
<path style="fill:none;stroke-width:1.2;stroke-linecap:butt;stroke-linejoin:miter;stroke:rgb(0%,0%,0%);stroke-opacity:1;stroke-miterlimit:10;" d="M 171.554688 120.703125 L 174.128906 106.050781 "/>
<path style="fill:none;stroke-width:1.2;stroke-linecap:butt;stroke-linejoin:miter;stroke:rgb(100%,0%,0%);stroke-opacity:1;stroke-miterlimit:10;" d="M 174.128906 106.050781 L 176.703125 91.402344 "/>
<path style=" stroke:none;fill-rule:nonzero;fill:rgb(0%,0%,0%);fill-opacity:1;" d="M 200.851562 125.851562 L 209.1875 154.886719 L 218.625 150.277344 Z M 200.851562 125.851562 "/>
<path style="fill:none;stroke-width:1.2;stroke-linecap:butt;stroke-linejoin:miter;stroke:rgb(0%,0%,0%);stroke-opacity:1;stroke-miterlimit:10;" d="M 222.238281 105.175781 L 200.851562 125.851562 "/>
<path style="fill:none;stroke-width:1;stroke-linecap:butt;stroke-linejoin:miter;stroke:rgb(0%,0%,0%);stroke-opacity:1;stroke-miterlimit:10;" d="M 243.363281 148.425781 L 243.363281 148.425781 M 240.363281 148.324219 L 240.507812 149.355469 M 237.367188 148.21875 L 237.65625 150.285156 M 234.367188 148.117188 L 234.804688 151.214844 M 231.371094 148.011719 L 231.953125 152.140625 M 228.371094 147.910156 L 229.097656 153.070312 M 225.371094 147.804688 L 226.246094 154 M 222.375 147.703125 L 223.394531 154.929688 M 219.375 147.597656 L 220.542969 155.859375 M 216.378906 147.496094 L 217.6875 156.785156 M 213.378906 147.390625 L 214.835938 157.714844 M 213.171875 147.382812 L 214.640625 157.78125 "/>
<path style="fill:none;stroke-width:1.2;stroke-linecap:butt;stroke-linejoin:miter;stroke:rgb(0%,0%,0%);stroke-opacity:1;stroke-miterlimit:10;" d="M 243.363281 148.425781 L 217.089844 134.472656 "/>
<path style="fill:none;stroke-width:1.2;stroke-linecap:butt;stroke-linejoin:miter;stroke:rgb(0%,0%,0%);stroke-opacity:1;stroke-miterlimit:10;" d="M 264.75 127.75 L 243.363281 148.425781 "/>
<path style="fill:none;stroke-width:1.2;stroke-linecap:butt;stroke-linejoin:miter;stroke:rgb(0%,0%,0%);stroke-opacity:1;stroke-miterlimit:10;" d="M 217.089844 134.472656 L 222.238281 105.175781 "/>
<path style="fill:none;stroke-width:1;stroke-linecap:butt;stroke-linejoin:miter;stroke:rgb(0%,0%,0%);stroke-opacity:1;stroke-miterlimit:10;" d="M 222.238281 105.175781 L 222.238281 105.175781 M 225.238281 105.28125 L 225.09375 104.246094 M 228.234375 105.382812 L 227.945312 103.316406 M 231.234375 105.488281 L 230.796875 102.390625 M 234.230469 105.589844 L 233.648438 101.460938 M 237.230469 105.695312 L 236.503906 100.53125 M 240.230469 105.796875 L 239.355469 99.601562 M 243.226562 105.902344 L 242.207031 98.671875 M 246.226562 106.003906 L 245.058594 97.746094 M 249.222656 106.109375 L 247.914062 96.816406 M 252.222656 106.210938 L 250.765625 95.886719 M 252.429688 106.21875 L 250.960938 95.820312 "/>
<path style="fill:none;stroke-width:1.2;stroke-linecap:butt;stroke-linejoin:miter;stroke:rgb(0%,0%,0%);stroke-opacity:1;stroke-miterlimit:10;" d="M 251.695312 101.019531 L 264.75 127.75 "/>
<path style="fill:none;stroke-width:1.2;stroke-linecap:butt;stroke-linejoin:miter;stroke:rgb(0%,0%,0%);stroke-opacity:1;stroke-miterlimit:10;" d="M 246.710938 106.765625 L 257.15625 128.148438 "/>
<path style="fill:none;stroke-width:1.2;stroke-linecap:butt;stroke-linejoin:miter;stroke:rgb(0%,0%,0%);stroke-opacity:1;stroke-miterlimit:10;" d="M 166.402344 150 L 138.453125 160.1875 "/>
<path style="fill:none;stroke-width:1.2;stroke-linecap:butt;stroke-linejoin:miter;stroke:rgb(0%,0%,0%);stroke-opacity:1;stroke-miterlimit:10;" d="M 166.003906 157.59375 L 143.648438 165.746094 "/>
<path style="fill:none;stroke-width:1.2;stroke-linecap:butt;stroke-linejoin:miter;stroke:rgb(0%,0%,0%);stroke-opacity:1;stroke-miterlimit:10;" d="M 189.203125 169.109375 L 166.402344 150 "/>
<path style="fill:none;stroke-width:1.2;stroke-linecap:butt;stroke-linejoin:miter;stroke:rgb(0%,0%,0%);stroke-opacity:1;stroke-miterlimit:10;" d="M 138.453125 160.1875 L 133.304688 189.488281 "/>
<path style="fill:none;stroke-width:1.2;stroke-linecap:butt;stroke-linejoin:miter;stroke:rgb(0%,0%,0%);stroke-opacity:1;stroke-miterlimit:10;" d="M 133.304688 189.488281 L 156.101562 208.597656 "/>
<path style="fill:none;stroke-width:1.2;stroke-linecap:butt;stroke-linejoin:miter;stroke:rgb(0%,0%,0%);stroke-opacity:1;stroke-miterlimit:10;" d="M 140.082031 186.035156 L 158.320312 201.320312 "/>
<path style="fill:none;stroke-width:1.2;stroke-linecap:butt;stroke-linejoin:miter;stroke:rgb(0%,0%,0%);stroke-opacity:1;stroke-miterlimit:10;" d="M 156.101562 208.597656 L 184.050781 198.40625 "/>
<path style="fill:none;stroke-width:1.2;stroke-linecap:butt;stroke-linejoin:miter;stroke:rgb(0%,0%,0%);stroke-opacity:1;stroke-miterlimit:10;" d="M 184.050781 198.40625 L 189.203125 169.109375 "/>
<path style="fill:none;stroke-width:1.2;stroke-linecap:butt;stroke-linejoin:miter;stroke:rgb(0%,0%,0%);stroke-opacity:1;stroke-miterlimit:10;" d="M 177.671875 194.265625 L 181.792969 170.828125 "/>
<path style=" stroke:none;fill-rule:nonzero;fill:rgb(100%,100%,100%);fill-opacity:1;" d="M 167.703125 84.402344 L 186.703125 84.402344 L 186.703125 98.402344 L 167.703125 98.402344 Z M 167.703125 84.402344 "/>
<g style="fill:rgb(100%,0%,0%);fill-opacity:1;">
  <use xlink:href="#glyph0-2" x="167.703125" y="95.541016"/>
  <use xlink:href="#glyph0-3" x="177.148438" y="95.541016"/>
</g>
</g>
</svg>

<svg xmlns="http://www.w3.org/2000/svg" xmlns:xlink="http://www.w3.org/1999/xlink" width="300pt" height="300pt" viewBox="0 0 300 300"><defs><symbol overflow="visible"><path d="M.594 2.125V-8.47h6V2.126zm.672-.672h4.671V-7.78h-4.67zm0 0"/></symbol><symbol overflow="visible" id="a"><path d="M1.172-8.75h1.594l3.89 7.313V-8.75h1.14V0H6.204L2.328-7.313V0H1.172zm0 0"/></symbol><symbol overflow="visible" id="b"><path d="M4.734-7.953c-.867 0-1.554.324-2.062.97-.5.635-.75 1.51-.75 2.624 0 1.094.25 1.965.75 2.61.508.637 1.195.953 2.062.953.852 0 1.532-.316 2.032-.953.507-.645.765-1.516.765-2.61 0-1.113-.257-1.988-.764-2.624-.5-.645-1.18-.97-2.032-.97zm0-.953c1.22 0 2.192.414 2.922 1.234.74.824 1.11 1.93 1.11 3.313 0 1.376-.37 2.477-1.11 3.298C6.926-.24 5.953.17 4.734.17c-1.23 0-2.214-.41-2.953-1.234C1.04-1.882.673-2.984.673-4.36c0-1.382.367-2.488 1.11-3.312.738-.82 1.722-1.234 2.952-1.234zm0 0"/></symbol><symbol overflow="visible" id="c"><path d="M1.172-8.75H2.36v3.594h4.296V-8.75h1.188V0H6.656v-4.172H2.36V0H1.17zm0 0"/></symbol></defs><g><path fill="#fff" d="M0 0h300v300H0z"/><path d="M35.25 122.898l19.11-22.796M45.438 150.848l-10.188-27.95M54.36 100.102l29.296 5.148M83.656 105.25l5.098 13.977" stroke-width="1.2" stroke="#000" stroke-miterlimit="10" fill="none"/><path d="M88.754 119.227l5.094 13.972M93.848 133.2l-9.555 11.398" stroke-width="1.2" stroke="#00f" stroke-miterlimit="10" fill="none"/><path d="M84.293 144.598l-9.555 11.398" stroke-width="1.2" stroke="#000" stroke-miterlimit="10" fill="none"/><path d="M93.848 133.2l14.648 2.573" stroke-width="1.2" stroke="#00f" stroke-miterlimit="10" fill="none"/><path d="M108.496 135.773l14.65 2.575" stroke-width="1.2" stroke="#000" stroke-miterlimit="10" fill="none"/><path d="M89.848 126.2h9v14h-9zm0 0" fill="#fff"/><use xlink:href="#a" x="89.848" y="137.338" fill="#00f"/><path d="M74.738 155.996l-29.3-5.148M123.145 138.348l19.11-22.797" stroke-width="1.2" stroke="#000" stroke-miterlimit="10" fill="none"/><path d="M171.555 120.703l-28.39-10.32-1.817 10.34zm0 0"/><path d="M171.555 120.703l29.297 5.15M171.555 120.703L166.402 150M171.555 120.703l2.574-14.652" stroke-width="1.2" stroke="#000" stroke-miterlimit="10" fill="none"/><path d="M174.13 106.05l2.573-14.648" stroke-width="1.2" stroke="#f00" stroke-miterlimit="10" fill="none"/><path d="M200.852 125.852l8.335 29.035 9.438-4.61zm0 0"/><path d="M222.238 105.176l-21.386 20.676" stroke-width="1.2" stroke="#000" stroke-miterlimit="10" fill="none"/><path d="M243.363 148.426m-3-.102l.145 1.03m-3.14-1.135l.288 2.065m-3.29-2.168l.44 3.098m-3.435-3.203l.583 4.13m-3.582-4.232l.728 5.16m-3.727-5.265l.876 6.195m-3.87-6.297l1.02 7.227m-4.02-7.332l1.167 8.26m-4.164-8.362l1.308 9.29m-4.31-9.395l1.458 10.325m-1.664-10.332l1.47 10.398" stroke="#000" stroke-miterlimit="10" fill="none"/><path d="M243.363 148.426l-26.273-13.953M264.75 127.75l-21.387 20.676M217.09 134.473l5.148-29.297" stroke-width="1.2" stroke="#000" stroke-miterlimit="10" fill="none"/><path d="M222.238 105.176m3 .105l-.144-1.034m3.14 1.137l-.29-2.067m3.29 2.172l-.437-3.097m3.433 3.2l-.582-4.13m3.582 4.235l-.726-5.164m3.726 5.267l-.875-6.195m3.872 6.3l-1.02-7.23m4.02 7.332l-1.168-8.258m4.163 8.363l-1.31-9.294m4.31 9.395l-1.457-10.323m1.664 10.332l-1.47-10.4" stroke="#000" stroke-miterlimit="10" fill="none"/><path d="M251.695 101.02l13.055 26.73M246.71 106.766l10.446 21.382M166.402 150l-27.95 10.188M166.004 157.594l-22.356 8.152M189.203 169.11l-22.8-19.11M138.453 160.188l-5.148 29.3M133.305 189.488l22.797 19.11M140.082 186.035l18.238 15.285M156.102 208.598l27.95-10.192M184.05 198.406l5.153-29.297M177.672 194.266l4.12-23.438" stroke-width="1.2" stroke="#000" stroke-miterlimit="10" fill="none"/><path d="M167.703 84.402h19v14h-19zm0 0" fill="#fff"/><g fill="#f00"><use xlink:href="#b" x="167.703" y="95.541"/><use xlink:href="#c" x="177.148" y="95.541"/></g></g></svg>
